src/Pure/16/symbolic/actions/num-lock-symbolic.svg

<svg width="16" height="16" version="1.1" xmlns="http://www.w3.org/2000/svg">
 
 <g fill="#363636">
  <path d="m3 6c-1.108 0-2 0.892-2 2v5c0 1.108 0.892 2 2 2h9c1.108 0 2-0.892 2-2v-5c0-1.108-0.892-2-2-2zm0 1h9c0.554 0 1 0.446 1 1v5c0 0.554-0.446 1-1 1h-9c-0.554 0-1-0.446-1-1v-5c0-0.554 0.446-1 1-1z"/>
  <path d="m7 8h1v4h1v1h-3v-1h1v-3h-1v-1z" color="#363636"/>
  <path d="m7.5 0c-1.939 0-3.5 1.561-3.5 3.5v2.5h1v-2.5c0-1.385 1.115-2.5 2.5-2.5s2.5 1.115 2.5 2.5v2.5h1v-2.5c0-1.939-1.561-3.5-3.5-3.5z"/>
 </g>
</svg>

<?xml version="1.0" encoding="UTF-8" standalone="no"?>
<svg
   width="16"
   height="16"
   version="1.1"
   id="svg3"
   sodipodi:docname="num-lock-symbolic.svg"
   inkscape:version="1.4.2 (ebf0e940d0, 2025-05-08)"
   xmlns:inkscape="http://www.inkscape.org/namespaces/inkscape"
   xmlns:sodipodi="http://sodipodi.sourceforge.net/DTD/sodipodi-0.dtd"
   xmlns="http://www.w3.org/2000/svg"
   xmlns:svg="http://www.w3.org/2000/svg">
  <defs
     id="defs3">
    <style
       id="current-color-scheme"
       type="text/css">
        .ColorScheme-Text { color:#363636; }
     </style>
  </defs>
  <sodipodi:namedview
     id="namedview3"
     pagecolor="#ffffff"
     bordercolor="#000000"
     borderopacity="0.25"
     inkscape:showpageshadow="2"
     inkscape:pageopacity="0.0"
     inkscape:pagecheckerboard="0"
     inkscape:deskcolor="#d1d1d1"
     inkscape:zoom="49.6875"
     inkscape:cx="8"
     inkscape:cy="8"
     inkscape:window-width="1920"
     inkscape:window-height="1010"
     inkscape:window-x="0"
     inkscape:window-y="0"
     inkscape:window-maximized="1"
     inkscape:current-layer="svg3" />
  <path
     id="path1"
     style="fill:currentColor"
     class="ColorScheme-Text"
     d="M 7.5 0 C 5.561 0 4 1.561 4 3.5 L 4 6 L 3 6 C 1.892 6 1 6.892 1 8 L 1 13 C 1 14.108 1.892 15 3 15 L 12 15 C 13.108 15 14 14.108 14 13 L 14 8 C 14 6.892 13.108 6 12 6 L 11 6 L 11 4 L 11 3.5 C 11 1.561 9.439 0 7.5 0 z M 7.5 1 C 8.885 1 10 2.115 10 3.5 L 10 4 L 10 6 L 5 6 L 5 3.5 C 5 2.115 6.115 1 7.5 1 z M 3 7 L 12 7 C 12.554 7 13 7.446 13 8 L 13 13 C 13 13.554 12.554 14 12 14 L 3 14 C 2.446 14 2 13.554 2 13 L 2 8 C 2 7.446 2.446 7 3 7 z M 6 8 L 6 9 L 7 9 L 7 12 L 6 12 L 6 13 L 9 13 L 9 12 L 8 12 L 8 8 L 7 8 L 6 8 z " />
</svg>
